X:1
T:Salve Regina
T:Frans Liszt
%%score [ 1 2 3 4 ]
L:1/8
Q:1/4=96
M:4/4
K:F
V:1 treble nm="Sopraan" snm="Sop."
V:2 treble nm="Alt" snm="A."
V:3 treble-8 nm="Tenor" snm="T."
V:4 bass nm="Bas" snm="Bs."
V:1
!p!"^Lento" F8- | F4 GF EF | G8- | G2 F2 F2 z2 | (G2 A2 B2 A2 | G6) F2 | (G2 A2 B2 A2 | G6) F2 | %8
w: Sal-|* ve _ Re- *|gi-|* * na,|ma- * * *|* ter,|ma- * * *|* ter|
 z2!<(! F2 F2!<)! E2 | !>!E3!>(! F F4!>)! | z2!<(! F2 F2!<)! _G2 | !>!_G3!>(! F F3!>)! z | %12
w: mi- se- ri-|cor- di- ae,|mi- se- ri-|cor- di- ae,|
!mp! (A4 c2) B2 | (A2 G2) F2 F2 | (G4 E4) | F4 z4 | (A4 c2 B2 | A2 G2) F2 F2 | %18
w: sal- * ve,|sal- * ve Re-|gi- *|na,|ma- * *|* * ter mi-|
 G6"^un poco ritenuto"!<(! G2!<)! | A6 G2 | G4 z4 |!p!"^A tempo" ^F8- | F4 G=F EF | (G8- | %24
w: ­se- ri-|cor- di-|ae,|sal-|* ve _ Re- *|gi-|
 G2 F2) F2 z2 |!pp! ^F8- | F4 G=F EF | (G8- | G2 F2) F2 z2 |!p! (G2 A2 B2 A2 | G6) F2 | %31
w: ­- * na,|sal-|* ve _ Re- *|gi-|* * na,|ma- * * *|­- ter|
 (G2 A2 B2 A2 | G6) F2 | z2!<(! F2 F2!<)! E2 | !>!E3!>(! F F4!>)! | z2!<(! F2 F2!<)! _G2 | %36
w: ma- * * *|* ter|mi- se- ri-|cor- di- ae,|mi- se- ri-|
 !>!_G3!>(! F F4!>)! |!pp! z2 F2 F2 E2 | E3 F F4 | z2!<(! F2 F2 G2!<)! | A3!>(! G G2!>)! z2 | %41
w: ­cor- di- ae,|mi- se- ri-|cor- di- ae,|mi- se- ri-|cor- di- ae,|
"^cresc.    -          -" (F2 G2 A2 B2 | %42
w: ma- * * *|
"^-         -         -         -         -         -" c2 d2) c2 B2 | B4 A4 |!>(! !>!B6 A2 | %45
w: ­- * ter mi-|se- ri-|cor- di-|
 (A4!>)!"^diminuendo    -         -         -         -         -" B4- | B4 A4- |!pp! A8- | %48
w: ae. _|_ _||
 !fermata!A8) |] %49
w: |
V:2
!p! (C4 D4- | D4) D2 CD | D8- | D4 D2 z2 | (E2 F2 G2 F2 | E2 D2 C2) CD | (E2 F2 G2 F2 | %7
w: Sal- *|* ve Re- *|gi-|* na,|ma- * * *|* * * ter, _|ma- * * *|
 E2 D2 C2) C2 | z2!<(! _D2 D2!<)! C2 | !>!C3!>(! _D (D2 C2)!>)! | z2!<(! _D2 D2!<)! C2 | %11
w: * * * ter|mi- se- ri-|cor- di- ae, _|mi- se- ri-|
 !>!C3!>(! _D (D2!>)! C) z |!mp! (F4 E2) G2 | (F2 E2) D2 D2 | (D4 C4) | C4 z4 | (F4 E2 G2 | %17
w: cor- di- ae, _|sal- * ve,|sal- * ve Re-|gi- *|na,|ma- * *|
 F2 E2) D2 D2 | E6!<(! E2!<)! | F6 E2 | E4 z4 |!p! D8- | D4 D2 CD | D8- | D4 D2 z2 |!pp! D8- | %26
w: * * ter mi-|­se- ri-|cor- di-|ae,|sal-|* ve Re- *|gi-|­- na,|sal-|
 D4 D2 CD | D8- | D4 D2 z2 |!p! (E2 F2 G2 F2 | E2 D2 C2) CD | (E2 F2 G2 F2 | E2 D2 C2) C2 | %33
w: * ve Re- *|gi-|* na,|ma- * * *|­- * * ter _|ma- * * *|* * * ter|
 z2!<(! _D2 D2!<)! C2 | !>!C3!>(! _D (D2!>)! C2) | z2!<(! _D2 D2!<)! C2 | %36
w: mi- se- ri-|cor- di- ae, _|mi- se- ri-|
 !>!C3!>(! _D (D2!>)! C2) |!pp! z2 =D2 D2 C2 | C3 D (D2 C2) | z2!<(! D2 D2 C2!<)! | %40
w: ­cor- di- ae, _|mi- se- ri-|cor- di- ae, _|mi- se- ri-|
 C3!>(! ^C C2!>)! z2 |"^cresc.    -          -" (D8 | %42
w: cor- di- ae,|ma-|
"^-         -         -         -         -         -" E2 F2) E2 D2 | F4 E4 |!>(! !>!F6 E2 | %45
w: ­- * ter mi-|se- ri-|cor- di-|
 (E4!>)!"^diminuendo    -         -         -         -         -" F4- | F4 E4 |!pp! F8- | %48
w: ae. _|_ _||
 !fermata!F8) |] %49
w: |
V:3
!p! (A8 | B4) BA GA | (B8- | B2 A2) A2 z2 | (B2 A2 G2 A2 | B6) A2 | (B2 A2 G2 A2 | B6) A2 | %8
w: Sal-|* ve _ Re- *|gi-|* * na,|ma- * * *|* ter,|ma- * * *|* ter|
 z2!<(! B2 B2!<)! B2 | !>!B3!>(! B (B2 A2)!>)! | z2!<(! B2 B2!<)! B2 | !>!B3!>(! B (B2!>)! A) z | %12
w: mi- se- ri-|cor- di- ae, _|mi- se- ri-|cor- di- ae, _|
!mp! (d4 c2) c2 | (c2 B2) A2 A2 | (B2 G2 ^FG AB) | A4 z4 | (d4 c4- | c2 B2) A2 B2 | %18
w: sal- * ve,|sal- * ve Re-|gi- * * * * *|na,|ma- *|* * ter mi-|
 (B2 G2 ^FG)!<(! AB | (B2 =c4)!<)! B2 | B4 A2 z2 |!p! A8- | A4 BA GA | (B8- | B2 A2) A2 z2 | %25
w: ­se- * * * ri- *|cor- * di-|ae, *|sal-|* ve _ Re- *|gi-|­- * na,|
!pp! A8- | A4 BA GA | (B8- | B2 A2) A2 z2 |!p! (B2 A2 G2 A2 | B6) A2 | (B2 A2 G2 A2 | B6) A2 | %33
w: sal-|* ve _ Re- *|gi-|* * na,|ma- * * *|­- ter|ma- * * *|* ter|
 z2!<(! B2 B2!<)! B2 | !>!B3!>(! B (B2!>)! A2) | z2!<(! B2 B2!<)! B2 | !>!B3!>(! B (B2!>)! A2) | %37
w: mi- se- ri-|cor- di- ae, _|mi- se- ri-|­cor- di- ae, _|
!pp! z2 B2 B2 B2 | B3 B (B2 A2) | z2!<(! B2 B2 B2!<)! | A3!>(! B B2!>)! z2 | %41
w: mi- se- ri-|cor- di- ae, _|mi- se- ri-|cor- di- ae,|
"^cresc.    -          -" (B8 | %42
w: ma-|
"^-         -         -         -         -         -" A2 G2) A2 B2 | d4 c4 |!>(! !>!d6 c2 | %45
w: ­- * ter mi-|se- ri-|cor- di-|
 (c4!>)!"^diminuendo    -         -         -         -         -" d4- | d4 c4- |!pp! c8- | %48
w: ae. _|_ _||
 !fermata!c8) |] %49
w: |
V:4
!p! (F,4 D,4 | B,,4) B,,2 B,,2 | (B,,3 A,, B,,2 C,2 | D,4) D,2 z2 | (C,8- | C,2 D,2 E,2) F,2 | %6
w: Sal- *|* ve Re-|gi- * * *|* na,|ma-|* * * ter,|
 (C,8- | C,2 D,2 E,2) F,2 | z2!<(! F,2 F,2!<)! _G,2 | !>!_G,3!>(! F, F,4!>)! | %10
w: ma-|* * * ter|mi- se- ri-|cor- di- ae,|
 z2!<(! F,2 F,2!<)! E,2 | !>!E,3!>(! F, F,3!>)! z |!mp! (D,2 F,2 A,2) E,2 | (F,2 C,2) D,2 D,C, | %14
w: mi- se- ri-|cor- di- ae,|sal- * * ve,|sal- * ve Re- *|
 (B,,4 C,4) | F,4 G,F, E,F, | (D,2 F,2 A,2 E,2 | F,2 C,2) D,2 D,2 | ^C,6!<(! C,2 | %19
w: gi- *|na, sal- * ve, _|ma- * * *|* * ter mi-|­se- ri-|
 (^C,3 D,!<)! E,F,) G,E, | ^C,4 z4 |!p! (D,4 C,2 =B,,2 | _B,,4) B,,2 B,,2 | ((B,,3 A,,) B,,2 C,2) | %24
w: cor- * * * di- *|ae,|sal- * *|* ve Re-|gi- * * *|
 D,4 D,2 z2 |!pp! (D,4 C,2 =B,,2 | _B,,4) B,,2 B,,2 | (B,,3 A,, B,,2 C,2 | D,4) D,2 z2 |!p! (C,8- | %30
w: ­- na,|sal- * *|* ve Re-|gi- * * *|* na,|ma-|
 C,2 D,2 E,2) F,2 | (C,8- | C,2 D,2 E,2) F,2 | z2!<(! F,2 F,2!<)! _G,2 | !>!_G,3!>(! F, F,4!>)! | %35
w: ­- * * ter|ma-|* * * ter|mi- se- ri-|cor- di- ae,|
 z2!<(! F,2 F,2!<)! E,2 | !>!E,3!>(! F, F,4!>)! |!pp! z2 F,2 F,2 G,2 | G,3 F, F,4 | %39
w: mi- se- ri-|­cor- di- ae,|mi- se- ri-|cor- di- ae,|
 z2!<(! F,2 F,2 E,2!<)! | E,3!>(! E, E,2!>)! z2 |"^cresc.    -          -" F,8- | %42
w: mi- se- ri-|cor- di- ae,|ma-|
"^-         -         -         -         -         -" F,4 F,2 F,2 | (F,2 G,2) A,4 | %44
w: ­- ter mi-|se- * ri-|
!>(! !>!G,6 A,2 | (A,4!>)!"^diminuendo    -         -         -         -         -" G,4- | %46
w: cor- di-|ae. _|
 G,4 A,4 |!pp! F,8- | !fermata!F,8) |] %49
w: _ _|||

